icons/book.svg

<svg width="25" height="24" viewBox="0 0 25 24" fill="none" xmlns="http://www.w3.org/2000/svg">
<path fill-rule="evenodd" clip-rule="evenodd" d="M5.47705 2C4.92477 2 4.47705 2.44772 4.47705 3V6H3.47705C2.92477 6 2.47705 6.44772 2.47705 7C2.47705 7.55228 2.92477 8 3.47705 8H4.47705V11H3.47705C2.92477 11 2.47705 11.4477 2.47705 12C2.47705 12.5523 2.92477 13 3.47705 13H4.47705V16H3.47705C2.92477 16 2.47705 16.4477 2.47705 17C2.47705 17.5523 2.92477 18 3.47705 18H4.47705V21C4.47705 21.5523 4.92477 22 5.47705 22H17.4771C19.6862 22 21.4771 20.2091 21.4771 18V6C21.4771 3.79086 19.6862 2 17.4771 2H5.47705ZM6.47705 18V20H17.4771C18.5816 20 19.4771 19.1046 19.4771 18V6C19.4771 4.89543 18.5816 4 17.4771 4H6.47705V6C7.02934 6 7.47705 6.44772 7.47705 7C7.47705 7.55228 7.02934 8 6.47705 8V11C7.02934 11 7.47705 11.4477 7.47705 12C7.47705 12.5523 7.02934 13 6.47705 13V16C7.02934 16 7.47705 16.4477 7.47705 17C7.47705 17.5523 7.02934 18 6.47705 18Z" fill="#9AA1B4"/>
</svg>

<?xml version="1.0" encoding="utf-8"?>
<!-- Generator: Adobe Illustrator 22.1.0, SVG Export Plug-In . SVG Version: 6.00 Build 0)  -->
<svg version="1.1" id="Layer_1" xmlns="http://www.w3.org/2000/svg" xmlns:xlink="http://www.w3.org/1999/xlink" x="0px" y="0px"
	 viewBox="0 0 25 24" style="enable-background:new 0 0 25 24;" xml:space="preserve">
<style type="text/css">
	.st0{fill:#9AA1B4;}
</style>
<path class="st0" d="M17.5,2h-12c-0.6,0-1,0.4-1,1v3h-1c-0.6,0-1,0.4-1,1s0.4,1,1,1h1v3h-1c-0.6,0-1,0.4-1,1s0.4,1,1,1h1v3h-1
	c-0.6,0-1,0.4-1,1s0.4,1,1,1h1v3c0,0.6,0.4,1,1,1h12c2.2,0,4-1.8,4-4V6C21.5,3.8,19.7,2,17.5,2z M19.5,18c0,1.1-0.9,2-2,2h-11v-2
	c0.6,0,1-0.4,1-1s-0.4-1-1-1v-3c0.6,0,1-0.4,1-1s-0.4-1-1-1V8c0.6,0,1-0.4,1-1S7,6,6.5,6V4h11c1.1,0,2,0.9,2,2V18z"/>
</svg>
